X:1
T:Isleworth, 88.86
T:Isleworth, 88.86
T:Samuel Howard, 1765
T:Public Domain Courtesy of the Cyber Hymnal™
C:Samuel Howard, 1765
Z:Public Domain
Z:Courtesy of the Cyber Hymnal™
%%score ( 1 2 ) ( 3 4 )
L:1/8
Q:1/4=105
M:4/4
K:F
V:1 treble 
V:2 treble 
V:3 bass 
V:4 bass 
V:1
 [DA]2 d2 [FA]2 [DB]2 | [DG]2 [DF]2 [^CE]2 D2 | [CE]2 [CF]2 G2 A2 | d2 [Ac]2 [^G=B]2 A2- | %4
 A2 A2 G2 F2 | [Ec]2 [DF]2 [DG]2 (FE) | [CF]2 [DF]2 [CA]2 [B,G]2 | F2 E2 D4 |] %8
V:2
 x2 (DE) x4 | x8 | x4 (DE) (FE) | (F^G) x6 | x2 (FE) (DE) x2 | x6 C2 | x8 | (A,=B,) (D^C) D4 |] %8
V:3
 ([D,F,][E,G,]) [F,A,]2 [D,A,]2 [G,,G,]2 | (D,E,) (F,G,) [A,,A,]2 [D,F,]2 | %2
 G,2 [A,,F,]2 [G,,B,]2 [D,A,]2 | [D,F]2 [E,E]2 ED [A,,C]2- | [A,,C]2 [F,C]2 [G,B,]2 (A,=B,) | %5
 [A,,C]2 A,2 (B,A,) [C,G,]2 | [F,A,]2 [B,,F,]2 [F,,F,]2 [G,,D,]2 | [A,,D,]2 [A,,E,]2 [D,F,]4 |] %8
V:4
 x8 | B,,2 A,,2 x4 | (C,B,,) x6 | x4 E,2 x2 | x6 D,2 | x2 D,C, B,,2 x2 | x8 | x8 |] %8

